icons/msql.svg

<!--
  - The MIT License (MIT)
  -
  - Copyright (c) 2015-2024 Elior "Mallowigi" Boukhobza
  -
  - Permission is hereby granted, free of charge, to any person obtaining a copy
  - of this software and associated documentation files (the "Software"), to deal
  - in the Software without restriction, including without limitation the rights
  - to use, copy, modify, merge, publish, distribute, sublicense, and/or sell
  - copies of the Software, and to permit persons to whom the Software is
  - furnished to do so, subject to the following conditions:
  -
  - The above copyright notice and this permission notice shall be included in all
  - copies or substantial portions of the Software.
  -
  - THE SOFTWARE IS PROVIDED "AS IS", WITHOUT WARRANTY OF ANY KIND, EXPRESS OR
  - IMPLIED, INCLUDING BUT NOT LIMITED TO THE WARRANTIES OF MERCHANTABILITY,
  - FITNESS FOR A PARTICULAR PURPOSE AND NONINFRINGEMENT. IN NO EVENT SHALL THE
  - AUTHORS OR COPYRIGHT HOLDERS BE LIABLE FOR ANY CLAIM, DAMAGES OR OTHER
  - LIABILITY, WHETHER IN AN ACTION OF CONTRACT, TORT OR OTHERWISE, ARISING FROM,
  - OUT OF OR IN CONNECTION WITH THE SOFTWARE OR THE USE OR OTHER DEALINGS IN THE
  - SOFTWARE.
  -
  -->

<svg  version="1.1" xmlns="http://www.w3.org/2000/svg" x="0px" y="0px" viewBox="0 0 469 512" width="16px"
     height="16px">
  <path fill="#f6251f" data-iconColor="MSSQL"
        d="M228.5113525,266.8843079c14.4206696-4.9558716,28.9552612-9.6422119,43.6017456-14.0638123c1.9296265,5.733429,4.5134888,37.1149597,3.9759827,44.1278992C260.0567627,288.0481567,244.2027435,277.9928284,228.5113525,266.8843079z M219.0729218,269.4311829c20.3393097,12.23526,40.2424774,23.711731,56.7137299,31.4692383c-18.6429138,13.532074-40.917923,25.3513184-66.0364532,35.8295288C215.3188324,314.8163452,219.1979523,296.1867676,219.0729218,269.4311829z M166.7660675,290.4561768c1.1982574-0.8714905,42.0473175-16.6664124,42.3523254-16.3614502c1.233963,22.060791-2.553833,40.3322449-9.3245087,61.7202148C184.1147919,323.2105103,173.1806641,308.0504456,166.7660675,290.4561768z M119.7736053,369.2406311c13.5015717-23.2949219,26.157486-47.5947571,35.7012482-73.1671143c0.2431946-1.278717,2.5574036-2.314209,3.1867523-1.9137573c7.5252838,19.9057312,20.8134613,36.4482727,36.0782776,48.6781616C171.4063416,352.3982849,144.8780212,361.1928101,119.7736053,369.2406311z M142.910202,300.4777832c-10.0843658,22.2337952-23.2370911,45.4368591-38.571701,69.3291931c-8.3117752-14.8054199-10.0020599-30.9431763-5.9556274-48.23526C110.7743225,315.131012,125.9995956,308.0074768,142.910202,300.4777832z M276.6446228,305.8697815c-0.0299683,21.6080322-2.0040588,44.0765381-5.457428,67.1340942c-20.0211029-5.5531006-39.5160522-15.2567139-58.6483612-27.8209534C235.0762634,333.6945801,258.5622559,320.0906067,276.6446228,305.8697815z M84.6130219,328.6405945c-3.7772598,18.0983582-0.9580612,33.2408447,8.1671982,49.0038147c-25.6512375,7.8288574-51.6264267,15.3773499-77.9034729,22.6646729C14.4052439,392.2067871,28.8682861,354.2242737,84.6130219,328.6405945z M176.7441711,415.1383667c11.7264709-21.801178,21.8184662-43.4133911,28.572525-64.6395874c20.4153137,11.7598267,42.2585907,20.2210083,65.3912201,25.7512817C245.5198059,388.9290161,212.6538849,401.9632874,176.7441711,415.1383667z M192.9639282,354.5183716c-9.2811432,23.0497437-20.6621857,45.3326416-33.6269379,67.0251465c-19.811203-11.351593-35.3576279-24.5179138-47.1016998-39.3022156C138.9102325,375.442688,165.832428,366.1520386,192.9639282,354.5183716z M249.5753021,451.9787903c-28.3474121-5.0091858-54.2546692-12.9741211-77.6459198-23.9866333c9.6357117-4.6538696,67.8401489-29.9242859,97.6911316-46.7247009C265.4202576,401.9685974,258.0866394,426.2928467,249.5753021,451.9787903z M92.7693253,387.3501282c-18.066803,26.6683655-38.6614418,54.4847107-46.2847252,66.6112061c-19.159996-15.7033081-30.174305-32.1964722-31.7596493-48.2727051C38.8160324,399.8976135,65.0737915,393.7362061,92.7693253,387.3501282z M53.3690376,459.0374756l-2.9847069-2.0479431c14.6147995-21.0653076,33.2507477-43.6612244,52.3194885-65.8595581c17.8177643,21.5393677,38.108345,31.4030151,43.0385818,35.2718201C115.1233139,437.4909058,84.3303833,448.3672791,53.3690376,459.0374756z M127.5945206,490.9543457c-0.7407455,0.1524963-3.3332825-0.5228882-3.3332825-0.8714905c15.5701981-19.1133728,29.5337753-37.5713196,40.3044205-54.7268677c24.3848114,9.4203796,51.5255432,16.3379517,82.7595367,19.538208C204.2546997,469.6476135,160.1841431,481.3370972,127.5945206,490.9543457z M150.8621521,435.7372131c-13.451355,21.3353577-27.7324066,43.9033508-32.809967,52.9077148c-22.9634552-7.0444946-46.9684525-16.6298523-60.2529526-26.7839661C89.5033875,453.3682556,120.5570984,444.6781006,150.8621521,435.7372131z M247.4511108,458.3839417c-6.4342499,19.3467407-16.8757935,48.9301758-18.7469788,49.737793c-33.1660309-4.4721375-64.0914307-9.4919434-92.351593-15.163147C170.1877289,486.1013489,214.7514801,474.723999,247.4511108,458.3839417z M188.6067047,3.9897356c3.2265625,27.1958656,10.5756378,42.4668503,10.1979218,44.9508705c-24.4233551-5.097496-51.0248413-9.4376259-79.0531235-13.3827057C140.9826355,23.4150467,164.1202393,13.0346727,188.6067047,3.9897356z M154.0865173,77.3655548l6.7101593,1.0675201c12.5302124-7.6219025,26.4854889-15.2310677,41.3719177-22.8319092c-32.2496643-2.9904289-64.1750793-9.0289536-88.3429413-16.9060593L154.0865173,77.3655548z M110.786499,41.1351547c0,0,26.6118164,33.0932007,26.5464478,33.1367722c-17.9132385-3.1724319-33.5939713-6.455162-45.3805923-10.5880928C92.0996628,54.8965302,102.412735,47.2010689,110.786499,41.1351547z M174.1515656,80.5027847c9.9140625-5.5288162,20.5993347-13.1459351,29.6363678-20.9634552c5.2515564,10.8650894,10.4738312,20.9659348,14.9107819,28.3347778C201.2760162,85.0571213,178.4109497,81.4791336,174.1515656,80.5027847z M230.3074951,89.4473038C213.2958527,59.3151169,198.2364807,29.3488731,190.4402771,0c-38.519577,12.2811956-74.0068817,26.1244602-101.6033173,44.0326805c-14.9693832,10.8501167-12.8355331,15.3130264-2.7668686,24.7491188c99.1207657,76.2484436,94.4531174,168.2676239-48.387104,285.6602783c-66.0084763,55.7135925-37.7757263,94.201416,26.7534447,126.0547791c45.238678,20.8576965,132.4103241,32.6448059,167.9713593,31.4156799c41.1348114-70.4871521,66.4734344-164.8401794,51.7884369-261.6512451c63.4276428-18.7178802,125.1016541-33.9046478,183.9161682-43.3334351C425.8727722,132.3845825,336.2223511,105.7720566,230.3074951,89.4473038z M98.8585739,72.8340378c7.7083206,2.627739,19.9920273,5.9084244,32.9188919,9.2809067c4.1706696,11.752594,8.4389801,26.3060684,12.7449188,41.938385C133.3050385,104.6468201,117.5517502,86.9556351,98.8585739,72.8340378z M197.7460327,95.1430664c-16.8891296,9.4828949-32.4958801,19.8562164-44.5745392,32.6792603c-4.1659698-15.32827-9.6281281-30.143898-16.2524719-44.4001999c0-0.0217972,0.0218048-0.0217896,0.0871429-0.0435638l0,0l0.0217896-0.0000229C140.4156647,83.7693939,174.8136902,91.1440048,197.7460327,95.1430664z M209.9898376,147.7566681c-18.4851685-5.8520813-35.1383514-10.6318359-49.3021088-14.7274475c9.4919434-11.2998199,24.8654633-23.7674637,43.5069885-36.8839722C210.2377472,112.4401093,211.7516785,129.8119354,209.9898376,147.7566681z M209.5323334,96.9077606c24.3052521,3.6749191,48.9474945,8.298172,73.8986359,13.7906494c-25.5505066,11.8517761-47.6845856,23.7828827-64.4652863,35.8382568C219.0513763,128.2324829,215.8358459,111.7282562,209.5323334,96.9077606z M267.4399414,173.4861603c-13.0506439-7.5359802-26.7455292-14.1255951-41.0015717-19.8907776c17.6769562-13.1349945,39.75383-26.6190338,65.4674225-40.3915634C290.2961121,129.0269012,280.8665161,151.2877808,267.4399414,173.4861603z M297.7662964,114.1406174c26.9987183,6.6487045,53.8762817,15.7669907,80.6088562,27.8863144c-32.4649048,6.9803925-66.0744629,17.0895691-97.7763367,30.2609711C290.0794678,152.6610413,295.6156311,133.2765656,297.7662964,114.1406174z M158.9665985,198.3441772c1.7251892-14.1241302,0.9363251-31.791275-1.6121521-51.9382172c14.3963776,2.7962646,29.201004,7.3590851,44.4219971,13.1806183C187.5544281,171.5071869,173.2779388,184.5625763,158.9665985,198.3441772z M322.5589905,227.0801392c-10.0492859-15.5304413-23.233551-30.2372437-40.8926697-43.7684021c28.8904114-13.2650146,62.7767334-25.5303345,102.0900269-36.7097168C367.7289124,171.9108429,344.0994873,199.9012146,322.5589905,227.0801392z M389.6930847,148.1706085c24.0717163,12.2997742,47.509491,31.0115662,70.3366394,55.6854553c-44.5408325,3.4371643-86.3114319,10.7680969-127.5798645,20.8711548C353.5592957,205.7095642,377.7419128,178.3705444,389.6930847,148.1706085z M198.6174469,214.727356c8.0678558-15.1049652,14.3688049-31.3096466,18.1737518-49.0678101c11.7715759,5.0583801,24.1857605,11.3305359,37.0759735,18.5018463C235.0407562,193.4183197,216.6511536,203.6682892,198.6174469,214.727356z M206.9724579,167.6583557c-4.5113525,19.6541901-12.3943329,38.548996-23.7796173,56.654953c-6.5967712-7.110199-14.0766144-12.8418427-22.5269012-17.0585785C174.2988281,193.9665527,189.7388,180.7679901,206.9724579,167.6583557z M268.6164246,193.0065765c17.4366455,11.2302246,33.0100098,23.256958,46.1648865,36.3175354c-36.7049561,9.7934875-73.4055176,21.5836182-108.7510071,34.8202057C231.1234436,241.4591217,252.6122131,217.5914764,268.6164246,193.0065765z M188.8810883,231.7801819c18.6399689-11.4642334,39.8285675-23.0347595,63.5590973-34.6887054c-16.1787109,23.6513519-34.6530304,46.9657745-54.6724091,70.053421C197.7488861,255.0125885,194.6945801,243.2351227,188.8810883,231.7801819z M135.8509827,259.789917c7.6086273-11.4639435,13.8350372-24.3314667,18.6495056-38.7228088c6.1345215,2.8283386,12.012619,6.7255859,17.4687653,11.1569672C158.0620575,242.5240021,145.4283905,252.0662079,135.8509827,259.789917z M180.5131226,241.5679321c5.1778412,4.9522247,11.0228119,17.736145,11.8734741,27.8645325c-31.6312256,12.0697937-58.7899933,23.4421387-78.8223724,33.7031555C140.1127319,283.7216492,163.4638214,263.4701233,180.5131226,241.5679321z M122.8015976,277.6676331c2.8975677-3.769043,3.4640121-4.3136597,7.7340775-7.3855286c11.4813232-8.278717,37.7009583-26.0562592,38.0059662-25.7512512c-18.8105469,22.9439697-41.1621246,42.4515686-67.3519363,58.2344666C100.2981567,302.7714539,116.8432693,286.3930664,122.8015976,277.6676331z"/>
</svg>

<svg xmlns="http://www.w3.org/2000/svg" viewBox="0 0 469 512"><path fill="#f6251f" d="M228.511 266.884a1211 1211 0 0 1 43.602-14.064c1.93 5.734 4.514 37.115 3.976 44.128-16.032-8.9-31.886-18.955-47.578-30.064m-9.438 2.547c20.34 12.235 40.242 23.712 56.714 31.47-18.643 13.531-40.918 25.35-66.037 35.829 5.569-21.914 9.448-40.543 9.323-67.299m-52.307 21.025c1.198-.871 42.047-16.666 42.352-16.361 1.234 22.06-2.553 40.332-9.324 61.72-15.68-12.604-26.613-27.765-33.028-45.359m-46.992 78.785c13.501-23.295 26.157-47.595 35.7-73.167.244-1.28 2.558-2.315 3.188-1.914 7.525 19.905 20.813 36.448 36.078 48.678-23.334 9.56-49.862 18.355-74.966 26.403m23.136-68.763c-10.084 22.234-23.237 45.437-38.571 69.329-8.312-14.805-10.003-30.943-5.956-48.235 12.391-6.441 27.617-13.565 44.527-21.094m133.735 5.392c-.03 21.608-2.004 44.076-5.458 67.134-20.02-5.553-39.516-15.257-58.648-27.821 22.537-11.488 46.023-25.092 64.106-39.313M84.613 328.64c-3.777 18.099-.958 33.241 8.167 49.004a3158 3158 0 0 1-77.903 22.665c-.472-8.102 13.991-46.085 69.736-71.668m92.131 86.498c11.727-21.8 21.819-43.413 28.573-64.64 20.415 11.76 42.258 20.222 65.39 25.752-25.187 12.679-58.053 25.713-93.963 38.888m16.22-60.62c-9.281 23.05-20.662 45.333-33.627 67.026-19.811-11.352-35.358-24.518-47.102-39.303 26.675-6.798 53.597-16.089 80.729-27.723m56.611 97.46c-28.347-5.008-54.254-12.973-77.646-23.986 9.636-4.654 67.84-29.924 97.692-46.725-4.2 20.702-11.534 45.026-20.046 70.712M92.77 387.35c-18.066 26.668-38.661 54.485-46.284 66.611-19.16-15.703-30.175-32.196-31.76-48.272 24.091-5.791 50.349-11.953 78.044-18.339m-39.4 71.687-2.985-2.047c14.615-21.066 33.251-43.662 52.32-65.86 17.818 21.54 38.108 31.403 43.038 35.272a6286 6286 0 0 1-92.373 32.635m74.226 31.917c-.741.153-3.334-.523-3.334-.871 15.57-19.114 29.534-37.571 40.305-54.727 24.384 9.42 51.525 16.338 82.76 19.538-43.071 14.754-87.142 26.443-119.731 36.06m23.267-55.217c-13.451 21.336-27.732 43.904-32.81 52.908C95.09 481.6 71.084 472.015 57.8 461.86c31.704-8.493 62.758-17.183 93.063-26.124m96.59 22.647c-6.435 19.347-16.877 48.93-18.748 49.738-33.166-4.472-64.091-9.492-92.351-15.163 33.835-6.858 78.398-18.235 111.098-34.575M188.606 3.99c3.226 27.196 10.575 42.467 10.198 44.95-24.424-5.097-51.025-9.437-79.053-13.382 21.23-12.143 44.368-22.523 68.855-31.568m-34.52 73.376 6.71 1.067c12.53-7.622 26.485-15.231 41.372-22.832-32.25-2.99-64.175-9.029-88.343-16.906zm-43.3-36.23s26.611 33.092 26.546 33.136c-17.913-3.173-33.594-6.455-45.38-10.588.147-8.787 10.46-16.483 18.833-22.549m63.365 39.367c9.914-5.529 20.599-13.146 29.636-20.964 5.251 10.865 10.474 20.966 14.91 28.335-17.422-2.817-40.287-6.395-44.546-7.371m56.155 8.944C213.296 59.315 198.237 29.35 190.44 0c-38.52 12.281-74.007 26.124-101.603 44.033-14.97 10.85-12.836 15.313-2.767 24.749 99.12 76.248 94.453 168.267-48.387 285.66-66.008 55.714-37.776 94.201 26.753 126.055 45.24 20.858 132.41 32.645 167.972 31.416 41.135-70.488 66.473-164.84 51.788-261.652 63.428-18.718 125.102-33.904 183.916-43.333-42.24-74.543-131.89-101.156-237.805-117.48M98.86 72.834c7.708 2.628 19.992 5.908 32.918 9.28 4.171 11.754 8.44 26.307 12.745 41.94-11.217-19.407-26.97-37.098-45.663-51.22m98.887 22.31c-16.89 9.482-32.496 19.855-44.575 32.678-4.165-15.328-9.628-30.144-16.252-44.4 0-.022.022-.022.087-.043h.022c3.388.39 37.786 7.765 60.718 11.764m12.244 52.613c-18.485-5.852-35.139-10.632-49.302-14.728 9.492-11.3 24.865-23.767 43.507-36.884 6.043 16.295 7.557 33.667 5.795 51.612m-.458-50.85c24.306 3.676 48.948 8.299 73.899 13.791-25.55 11.852-47.685 23.783-64.465 35.839.085-18.305-3.13-34.809-9.434-49.63m57.908 76.58c-13.05-7.537-26.746-14.126-41.002-19.892 17.677-13.135 39.754-26.619 65.468-40.391-1.61 15.823-11.04 38.084-24.466 60.282m30.326-59.346c26.999 6.648 53.877 15.767 80.61 27.886-32.466 6.98-66.075 17.09-97.777 30.26 9.48-19.626 15.017-39.01 17.167-58.146m-138.8 84.203c1.726-14.124.937-31.791-1.612-51.938 14.397 2.796 29.201 7.359 44.422 13.18-14.222 11.921-28.498 24.977-42.81 38.758M322.56 227.08c-10.05-15.53-23.234-30.237-40.893-43.768 28.89-13.265 62.777-25.53 102.09-36.71-16.027 25.309-39.657 53.3-61.197 80.478m67.134-78.91c24.072 12.3 47.51 31.012 70.337 55.686-44.541 3.437-86.312 10.768-127.58 20.871 21.11-19.017 45.292-46.356 57.243-76.556m-191.076 66.557c8.068-15.105 14.37-31.31 18.174-49.067 11.772 5.058 24.186 11.33 37.076 18.501-18.826 9.257-37.216 19.507-55.25 30.566m8.355-47.069c-4.51 19.655-12.394 38.55-23.78 56.655-6.596-7.11-14.076-12.842-22.526-17.058 13.633-13.288 29.073-26.487 46.306-39.597m61.644 25.349c17.437 11.23 33.01 23.257 46.165 36.317-36.705 9.794-73.405 21.584-108.75 34.82 25.092-22.685 46.581-46.553 62.585-71.137m-79.735 38.773c18.64-11.464 39.829-23.035 63.56-34.689-16.18 23.652-34.654 46.966-54.673 70.054-.02-12.132-3.073-23.91-8.887-35.365m-53.03 28.01c7.609-11.464 13.835-24.332 18.65-38.723 6.134 2.828 12.012 6.726 17.468 11.157-13.907 10.3-26.54 19.842-36.118 27.566m44.662-18.222c5.178 4.952 11.023 17.736 11.874 27.864-31.632 12.07-58.79 23.443-78.823 33.704 26.549-19.414 49.9-39.666 66.95-61.568m-57.711 36.1c2.897-3.77 3.464-4.314 7.734-7.386 11.481-8.279 37.7-26.056 38.006-25.751-18.81 22.944-41.162 42.451-67.352 58.234-.892.006 15.653-16.372 21.612-25.097" data-iconColor="MSSQL"/></svg>
